src/img/dis.svg

<svg width="18" height="18" viewBox="0 0 18 18" fill="none" xmlns="http://www.w3.org/2000/svg">
<g clip-path="url(#clip0)">
<path d="M6.50847 7.14185C5.4676 7.14185 4.62076 8.07479 4.62076 9.22151C4.62076 10.3682 5.4676 11.3012 6.50847 11.3012C7.54938 11.3012 8.39626 10.3682 8.39626 9.22151C8.39626 8.07479 7.54938 7.14185 6.50847 7.14185ZM6.50847 10.2465C6.04916 10.2465 5.67545 9.78669 5.67545 9.22151C5.67545 8.65634 6.04916 8.19653 6.50847 8.19653C6.96782 8.19653 7.34157 8.65634 7.34157 9.22151C7.34157 9.78669 6.96782 10.2465 6.50847 10.2465Z" fill="#D1C1EC"/>
<path d="M11.4917 7.14185C10.4508 7.14185 9.60388 8.07479 9.60388 9.22151C9.60388 10.3682 10.4508 11.3012 11.4917 11.3012C12.5325 11.3012 13.3794 10.3682 13.3794 9.22151C13.3794 8.07479 12.5325 7.14185 11.4917 7.14185ZM11.4917 10.2465C11.0323 10.2465 10.6586 9.78669 10.6586 9.22151C10.6586 8.65634 11.0323 8.19653 11.4917 8.19653C11.951 8.19653 12.3247 8.65634 12.3247 9.22151C12.3247 9.78669 11.951 10.2465 11.4917 10.2465Z" fill="#D1C1EC"/>
<path d="M17.9993 12.7469C17.9868 12.524 17.6715 7.24998 15.6687 4.09509C15.6278 4.03058 15.5733 3.9757 15.509 3.93436C13.0326 2.33971 11.3458 2.34428 11.2752 2.34399C11.0707 2.3467 10.8945 2.46567 10.8094 2.63758L9.95864 4.26792C9.64174 4.24718 9.32178 4.23642 9.0001 4.23642C8.67849 4.23642 8.3585 4.24718 8.0416 4.26792L7.19181 2.63948C7.10704 2.46658 6.93031 2.34674 6.72497 2.34403C6.65399 2.34361 4.96736 2.33988 2.49124 3.93439C2.42701 3.97577 2.37248 4.03062 2.33153 4.09513C0.328745 7.24998 0.0133578 12.524 0.000912472 12.7469C-0.00689221 12.8867 0.0412015 13.0239 0.134612 13.1282C0.227494 13.2318 2.43387 15.6562 5.48356 15.6562C5.4972 15.6562 5.51123 15.6562 5.52491 15.6561C5.68518 15.6549 5.83618 15.581 5.93536 15.4551L7.34206 13.6699C7.88234 13.7316 8.43729 13.7638 9.0001 13.7638C9.56295 13.7638 10.1179 13.7316 10.6581 13.6699L12.0648 15.4551C12.164 15.581 12.315 15.6549 12.4753 15.6561C12.4892 15.6562 12.5028 15.6562 12.5166 15.6562C15.5661 15.6562 17.7728 13.2318 17.8656 13.1282C17.959 13.0239 18.0071 12.8867 17.9993 12.7469ZM12.7311 14.5966L11.8517 13.4804C13.1904 13.205 14.392 12.7364 15.3299 12.1071C15.5718 11.9449 15.6363 11.6173 15.4741 11.3754C15.3118 11.1335 14.9841 11.0689 14.7423 11.2313C13.3425 12.1705 11.2495 12.7091 9.0001 12.7091C6.7508 12.7091 4.65781 12.1705 3.25786 11.2314C3.01595 11.0691 2.6884 11.1337 2.52615 11.3756C2.3639 11.6174 2.42845 11.945 2.67033 12.1073C3.60829 12.7364 4.80986 13.2051 6.14858 13.4805L5.26915 14.5965C3.20431 14.5007 1.56111 13.0568 1.07044 12.5776C1.15235 11.5558 1.57739 7.34149 3.16093 4.75817C4.71593 3.77661 5.88941 3.50362 6.41352 3.42776L6.91386 4.3865C5.7375 4.55828 4.63538 4.87394 3.69661 5.31593C3.43311 5.43996 3.32008 5.75415 3.44411 6.01768C3.56818 6.28114 3.88237 6.39413 4.14583 6.27017C5.4869 5.6388 7.21086 5.29111 9.0001 5.29111C10.7894 5.29111 12.5134 5.63887 13.8544 6.27031C13.927 6.30449 14.0034 6.32069 14.0787 6.32069C14.2766 6.32069 14.4663 6.20872 14.5562 6.01786C14.6802 5.7544 14.5672 5.44017 14.3037 5.3161C13.3649 4.87408 12.2628 4.55835 11.0863 4.38657L11.5867 3.42783C12.1107 3.50369 13.2842 3.77668 14.8393 4.75824C16.4211 7.33885 16.8475 11.5575 16.9297 12.5785C16.4403 13.0587 14.8044 14.5015 12.7311 14.5966Z" fill="#D1C1EC"/>
</g>
<defs>
<clipPath id="clip0">
<rect width="18" height="18" fill="white" transform="translate(0.00012207)"/>
</clipPath>
</defs>
</svg>

<svg width="18" height="18" fill="none" xmlns="http://www.w3.org/2000/svg"><g clip-path="url(#a)" fill="#D1C1EC"><path d="M6.508 7.142c-1.04 0-1.887.933-1.887 2.08 0 1.146.847 2.08 1.887 2.08 1.041 0 1.888-.934 1.888-2.08 0-1.147-.847-2.08-1.888-2.08Zm0 3.104c-.459 0-.833-.46-.833-1.024 0-.566.374-1.025.833-1.025.46 0 .834.46.834 1.025s-.374 1.024-.834 1.024Zm4.984-3.104c-1.041 0-1.888.933-1.888 2.08 0 1.146.847 2.08 1.888 2.08 1.04 0 1.887-.934 1.887-2.08 0-1.147-.846-2.08-1.887-2.08Zm0 3.104c-.46 0-.833-.46-.833-1.024 0-.566.373-1.025.833-1.025.459 0 .833.46.833 1.025s-.374 1.024-.833 1.024Z"/><path d="M18 12.747c-.013-.223-.328-5.497-2.331-8.652a.526.526 0 0 0-.16-.16c-2.476-1.595-4.163-1.59-4.234-1.591a.527.527 0 0 0-.466.294l-.85 1.63a14.683 14.683 0 0 0-1.917 0l-.85-1.629a.527.527 0 0 0-.467-.295c-.071 0-1.758-.004-4.234 1.59a.528.528 0 0 0-.16.161C.33 7.25.014 12.524.002 12.747c-.008.14.04.277.134.381.092.104 2.299 2.528 5.349 2.528h.04a.527.527 0 0 0 .411-.2l1.407-1.786a14.632 14.632 0 0 0 3.316 0l1.407 1.785a.528.528 0 0 0 .452.201c3.05 0 5.256-2.424 5.349-2.528a.528.528 0 0 0 .133-.381Zm-5.269 1.85-.88-1.117c1.34-.275 2.541-.744 3.479-1.373a.527.527 0 1 0-.588-.876c-1.4.94-3.493 1.478-5.742 1.478-2.25 0-4.342-.538-5.742-1.478a.527.527 0 1 0-.588.876c.938.63 2.14 1.098 3.479 1.373l-.88 1.117c-2.065-.096-3.708-1.54-4.199-2.02.082-1.021.507-5.236 2.09-7.819 1.556-.981 2.73-1.254 3.254-1.33l.5.958c-1.176.172-2.279.488-3.217.93a.527.527 0 0 0 .449.954C5.486 5.64 7.21 5.291 9 5.291s3.513.348 4.854.98a.525.525 0 0 0 .702-.253.527.527 0 0 0-.252-.702c-.94-.442-2.041-.758-3.218-.93l.5-.958c.525.076 1.698.349 3.253 1.33 1.582 2.58 2.008 6.8 2.09 7.82-.489.48-2.125 1.924-4.198 2.019Z"/></g><defs><clipPath id="a"><path fill="#fff" d="M0 0h18v18H0z"/></clipPath></defs></svg>
